!!!COM:	Bach, Johann Sebastian
!!!CDT:	1685/02/21/-1750/07/28/
!!!OTL@@DE:	Meinen Jesum la&szlig; ich nicht, weil
!!!SCT:	BWV 380
!!!PC#:	299
!!!AGN:	chorale
**kern	**kern	**kern	**kern
*ICvox	*ICvox	*ICvox	*ICvox
*Ibass	*Itenor	*Ialto	*Isoprn
*I"Bass	*I"Tenor	*I"Alto	*I"Soprano
*	*oclefC4	*oclefC3	*oclefC1
*clefF4	*clefGv2	*clefG2	*clefG2
*k[b-e-a-]	*k[b-e-a-]	*k[b-e-a-]	*k[b-e-a-]
*E-:	*E-:	*E-:	*E-:
*M4/4	*M4/4	*M4/4	*M4/4
*met(c)	*met(c)	*met(c)	*met(c)
*MM100	*MM100	*MM100	*MM100
=1-	=1-	=1-	=1-
8E-L	4e-	4g	4b-
8FJ	.	.	.
8GL	4e-	4g	4b-
8E-J	.	.	.
8A-L	4c	4e-	4cc
8GJ	.	.	.
8A-L	4f	4a-	4cc
8FJ	.	.	.
=2	=2	=2	=2
4B-	8fL	8a-L	4dd
.	8e-J	8gJ	.
4BB-	8fL	4a-	8ddL
.	8dJ	.	16ee-L
.	.	.	16ffJJ
2E-;	2B-;	2g;	2ee-;
=3	=3	=3	=3
8BB-L	8dL	4b-	4ff
8CJ	8e-J	.	.
8DL	8fL	8b-L	4ff
8BB-J	8dJ	8a-J	.
8CL	8dL	4.g	4ee-
8DJ	16cL	.	.
.	16BJJ	.	.
8E-L	4c	.	4ee-
8FJ	.	8a	.
=4	=4	=4	=4
8GL	4B-X	8b-L	4dd
8FJ	.	8aJ	.
8E-L	4B-	8gL	8ccL
8CJ	.	8e-J	16ddL
.	.	.	16ee-JJ
4F	8B-L	4.f	2cc
.	8GJ	.	.
4FF	4A	.	.
.	.	8e-	.
=5	=5	=5	=5
2BB-;	2F;	2d;	2b-;
8E-L	8GL	4e-	4b-
8FJ	8A-XJ	.	.
8GL	8B-L	4e-	4b-
8E-J	8GJ	.	.
=6	=6	=6	=6
8A-L	8A-L	4e-	4cc
8GJ	8B-J	.	.
8FL	4c	4a-	4cc
8E-J	.	.	.
8DL	8FL	8a-L	4b-
8EJ	8GJ	8gJ	.
4F	8A-L	4f	8a-L
.	8B-J	.	8gJ
=7	=7	=7	=7
2C;	2c;	2e;	2g;
8GL	8B-L	8eL	4b-
8FJ	8A-J	8fJ	.
8EL	4G	8gL	4b-
8CJ	.	8eJ	.
=8	=8	=8	=8
8FL	4A-	4c	4a-
8E-XJ	.	.	.
8DL	4B-	8fL	4a-
8BB-J	.	8dJ	.
8E-L	4B-	4e-X	4g
8GJ	.	.	.
8A-L	8cL	4e-	8fL
8FJ	8A-J	.	16gL
.	.	.	16a-JJ
=9	=9	=9	=9
4B-	8B-L	4e-	2f
.	8GJ	.	.
4BB-	4A-	4d	.
2E-;	2G;	2B-;	2e-;
=10	=10	=10	=10
8e-L	4e-	4g	4b-
8d-J	.	.	.
8cL	4e-	4g	4b-
8B-J	.	.	.
8A-L	4e-	4a-	4cc
8GJ	.	.	.
8FL	4f	8a-L	4cc
8E-J	.	8gJ	.
=11	=11	=11	=11
8DnXL	8BL	4f	4ddnX
8CJ	8cJ	.	.
8BBnXL	8dnXL	4g	8ddL
8GGJ	8BJ	.	16ee-L
.	.	.	16ffJJ
2C;	2c;	2g;	2ee-;
=12	=12	=12	=12
8E-L	4G	4e-	4b-X
8D-J	.	.	.
8CL	4G	4e-	8b-L
8BB-XJ	.	.	16ccL
.	.	.	16dd-JJ
8AA-L	8A-L	8e-L	8ccL
8GGJ	8E-J	8cJ	8b-J
8FFL	8FL	8dL	8a-L
8EE-J	8B-J	8e-J	8gJ
=13	=13	=13	=13
4AA-	4c	4e-	8fL
.	.	.	16gL
.	.	.	16a-JJ
4BB-	8B-L	4d	4f
.	8A-J	.	.
2E-;	2G;	2B-;	2e-;
==	==	==	==
*-	*-	*-	*-
!!!YOR1: 371 vierstimmige Choralges&auml;nge von Johann Sebastian Bach, 
!!!YOR2: 4th ed. by Alfred D&ouml;rffel (Leipzig: Breitkopf und H&auml;rtel, 
!!!YOR2: c.1875). 178 pp. Plate "V.A.10".  reprint: J.S. Bach, 371 Four-Part 
!!!YOR4: Chorales (New York: Associated Music Publishers, Inc., c.1940).
!!!SMS: B&H, 4th ed, Alfred D&ouml;rffel, c.1875, plate V.A.10
!!!EED:  Craig Stuart Sapp
!!!EEV:  2009/05/22
